fonts/lozegw.svg

<svg width="500" height="850" xmlns="http://www.w3.org/2000/svg" xmlns:svg="http://www.w3.org/2000/svg">
    <path
        d="M 150 300 L 125 325 L 50 400 L 25 425 L 50 450 L 125 525 L 150 550 L 175 525 L 162.5 512.5 L 75 425 L 150 350 L 325 525 L 337.5 537.5 L 350 550 L 375 525 L 450 450 L 475 425 L 350 300 L 325 325 L 425 425 L 350 500 L 175 325 L 162.5 312.5 L 150 300 z " />
</svg>

<svg width="500" height="850" xmlns="http://www.w3.org/2000/svg" xmlns:svg="http://www.w3.org/2000/svg">
    <path
        d="m250 200-25 25 25 25 75 75 25 25 75 75-75 75-25 25-75 75L75 425l-25-25-25 25 25 25 75 75 25 25 100 100 100-100 25-25 75-75 25-25-200-200z" />
    <path
        d="m150 300-25 25-75 75-25 25 25 25 75 75 25 25 100 100 100-100 25-25 75-75 25-25-100-100-25-25-25 25 25 25 75 75-75 75-25 25-75 75L75 425l75-75 25-25z" />
    <path
        d="m250 200-25 25-75 75-25 25-75 75-25 25 25 25 75 75 25 25 100 100 100-100 25-25 75-75 25-25-25-25-25 25-75 75-25 25-75 75L75 425l75-75 25-25 75-75 25-25z" />
    <path
        d="m250 200-25 25-87.5 87.5L125 325l25 25 12.5-12.5L250 250l175 175-75 75-25 25-75 75-75-75-25-25-25 25 12.5 12.5L250 650l100-100 25-25 75-75 25-25-200-200z" />
    <path
        d="m250 200-25 25-75 75-12.5 12.5L125 325l-75 75-25 25 25 25 75 75 25 25 75 75 25 25 25-25 75-75 25-25 75-75 25-25-112.5-112.5L275 225zm0 50 75 75 25 25 75 75-100 100-75 75L75 425l75-75 12.5-12.5L175 325z" />
    lozegw
    <path
        d="m250 200-25 25-75 75-25 25-75 75-25 25 25 25 75 75 25 25 100 100 100-100 25-25-25-25-25 25-75 75L75 425l75-75 25-25 75-75 75 75 25 25 25-25-12.5-12.5z" />
    <path
        d="m250 200-25 25-75 75-25 25-75 75-25 25 25 25 25-25 75-75 25-25 75-75 175 175-75 75-25 25-75 75-25 25 25 25 25-25 75-75 25-25 75-75 25-25z" />
    <path
        d="m250 200-25 25-75 75-25 25-75 75-25 25 25 25 75 75 25 25 25-25-12.5-12.5L75 425l75-75 25-25 75-75 175 175-87.5 87.5L325 525l25 25 12.5-12.5L450 450l25-25z" />
    <path
        d="m250 200-25 25-75 75-25 25-75 75-25 25 25 25 75 75 25 25 75 75 25 25 25-25-25-25L75 425l75-75 25-25 75-75 175 175 25 25 25-25z" />
</svg>
